packages/foundations/icons/Health/Stetoscope.svg

<svg width="24" height="24" viewBox="0 0 24 24" fill="none" xmlns="http://www.w3.org/2000/svg">
<path d="M4.57143 2.25H4V3.75H4.57143C4.98564 3.75 5.32143 3.41421 5.32143 3C5.32143 2.58579 4.98564 2.25 4.57143 2.25Z" fill="#3D474D"/>
<path d="M11.4286 3.75H12.5V2.25H11.4286C11.0144 2.25 10.6786 2.58579 10.6786 3C10.6786 3.41421 11.0144 3.75 11.4286 3.75Z" fill="#3D474D"/>
<path d="M8.69209 14.7105C8.57882 14.44 8.3116 14.25 8 14.25C7.6884 14.25 7.42118 14.44 7.30791 14.7105C7.53488 14.7366 7.76573 14.75 8 14.75C8.23427 14.75 8.46512 14.7366 8.69209 14.7105Z" fill="#3D474D"/>
<path fill-rule="evenodd" clip-rule="evenodd" d="M4 2.25C4 1.55964 4.55964 1 5.25 1C5.94036 1 6.5 1.55964 6.5 2.25V3.75C6.5 4.44036 5.94036 5 5.25 5C4.55964 5 4 4.44036 4 3.75H4.57143C4.98564 3.75 5.32143 3.41421 5.32143 3C5.32143 2.58579 4.98564 2.25 4.57143 2.25H4ZM7.30791 14.7105C3.82195 14.3098 1.25 10.9128 1.25 7V3C1.25 2.58579 1.58579 2.25 2 2.25H4V3.75H2.75V7C2.75 10.5644 5.2048 13.25 8 13.25C10.7952 13.25 13.25 10.5644 13.25 7V3.75H12.5V2.25H14C14.4142 2.25 14.75 2.58579 14.75 3V7C14.75 10.9128 12.1781 14.3098 8.69209 14.7105C8.57882 14.44 8.3116 14.25 8 14.25C7.6884 14.25 7.42118 14.44 7.30791 14.7105ZM18.7417 14.8881C18.7472 14.9246 18.75 14.962 18.75 15V17.9091C18.75 21.1221 16.1883 23.75 13 23.75C9.81168 23.75 7.25 21.1221 7.25 17.9091V15C7.25 14.8974 7.27061 14.7996 7.30791 14.7105C7.53488 14.7366 7.76573 14.75 8 14.75C8.23427 14.75 8.46512 14.7366 8.69209 14.7105C8.72939 14.7996 8.75 14.8974 8.75 15V17.9091C8.75 20.3193 10.6655 22.25 13 22.25C15.3345 22.25 17.25 20.3193 17.25 17.9091V15C17.25 14.962 17.2528 14.9246 17.2583 14.8881C17.4926 14.9608 17.7417 15 18 15C18.2583 15 18.5074 14.9608 18.7417 14.8881ZM18.7417 14.8881C19.7603 14.5721 20.5 13.6225 20.5 12.5C20.5 11.1193 19.3807 10 18 10C16.6193 10 15.5 11.1193 15.5 12.5C15.5 13.6225 16.2397 14.5721 17.2583 14.8881C17.3123 14.527 17.6238 14.25 18 14.25C18.3762 14.25 18.6877 14.527 18.7417 14.8881ZM12.5 2.25C12.5 1.55964 11.9404 1 11.25 1C10.5596 1 10 1.55964 10 2.25V3.75C10 4.44036 10.5596 5 11.25 5C11.9404 5 12.5 4.44036 12.5 3.75H11.4286C11.0144 3.75 10.6786 3.41421 10.6786 3C10.6786 2.58579 11.0144 2.25 11.4286 2.25H12.5Z" fill="#3D474D"/>
<path d="M17.2583 14.8881C17.4926 14.9608 17.7417 15 18 15C18.2583 15 18.5074 14.9608 18.7417 14.8881C18.6877 14.527 18.3762 14.25 18 14.25C17.6238 14.25 17.3123 14.527 17.2583 14.8881Z" fill="#3D474D"/>
</svg>

<svg xmlns="http://www.w3.org/2000/svg" fill="none" viewBox="0 0 24 24" width="100%" height="100%">
  <path fill="#3D474D" d="M4.571 2.25H4v1.5h.571a.75.75 0 0 0 0-1.5Zm6.858 1.5H12.5v-1.5h-1.071a.75.75 0 0 0 0 1.5ZM8.692 14.71a.75.75 0 0 0-1.384 0 6.055 6.055 0 0 0 1.384 0Z"/>
  <path fill="#3D474D" fill-rule="evenodd" d="M4 2.25a1.25 1.25 0 1 1 2.5 0v1.5a1.25 1.25 0 1 1-2.5 0h.571a.75.75 0 0 0 0-1.5H4Zm3.308 12.46C3.822 14.31 1.25 10.913 1.25 7V3A.75.75 0 0 1 2 2.25h2v1.5H2.75V7c0 3.564 2.455 6.25 5.25 6.25s5.25-2.686 5.25-6.25V3.75h-.75v-1.5H14a.75.75 0 0 1 .75.75v4c0 3.913-2.572 7.31-6.058 7.71a.75.75 0 0 0-1.384 0Zm11.434.178a.751.751 0 0 1 .008.112v2.91c0 3.212-2.562 5.84-5.75 5.84s-5.75-2.628-5.75-5.84V15c0-.103.02-.2.058-.29a6.055 6.055 0 0 0 1.384 0c.037.09.058.187.058.29v2.91c0 2.41 1.915 4.34 4.25 4.34s4.25-1.93 4.25-4.34V15c0-.038.003-.075.008-.112a2.499 2.499 0 0 0 1.484 0Zm0 0a2.501 2.501 0 1 0-1.484 0 .75.75 0 0 1 1.484 0ZM12.5 2.25a1.25 1.25 0 1 0-2.5 0v1.5a1.25 1.25 0 1 0 2.5 0h-1.071a.75.75 0 0 1 0-1.5H12.5Z" clip-rule="evenodd"/>
  <path fill="#3D474D" d="M17.258 14.888a2.499 2.499 0 0 0 1.484 0 .75.75 0 0 0-1.484 0Z"/>
</svg>
